NotoEmoji/emoji_u1f171.svg

<svg enable-background="new 0 0 128 128" viewBox="0 0 128 128" xmlns="http://www.w3.org/2000/svg"><path d="m116 4h-104c-4.42 0-8 3.58-8 8v104c0 4.42 3.58 8 8 8h104c4.42 0 8-3.58 8-8v-104c0-4.42-3.58-8-8-8z" fill="#c33"/><path d="m109.7 4h-98.2c-4.13.03-7.47 3.37-7.5 7.5v97.9c-.01 4.14 3.34 7.49 7.48 7.5h.02 98.1c4.14.01 7.49-3.34 7.5-7.48 0-.01 0-.01 0-.02v-97.9c.09-4.05-3.13-7.41-7.18-7.5-.07 0-.15 0-.22 0z" fill="#f44336"/><path d="m39.7 12.9c0-2.3-1.6-3-10.8-2.7-7.7.3-11.5 1.2-13.8 4s-2.9 8.5-3 15.3c0 4.8 0 9.3 2.5 9.3 3.4 0 3.4-7.9 6.2-12.3 5.4-8.7 18.9-10.6 18.9-13.6z" fill="#ff8a80"/><path d="m33.2 106v-84c0-1.1.9-2 2-2h28.2c9.9 0 17.5 2 22.7 6s7.8 9.9 7.8 17.8c.08 6.69-3.38 12.92-9.1 16.4-.94.59-1.22 1.82-.63 2.76.2.32.49.58.83.74 2.77 1.33 5.18 3.32 7 5.8 2.74 3.69 4.15 8.2 4 12.8 0 8.3-2.7 14.6-7.9 19s-12.9 6.7-22.8 6.7h-30.1c-1.1 0-2-.9-2-2zm15.3-51c0 1.1.9 2 2 2h13c4.8 0 8.5-1.1 11.2-3.2s4-5.2 4-9.2c0-4.3-1.2-7.5-3.7-9.4s-6.3-2.9-11.6-2.9h-12.9c-1.1 0-2 .9-2 2zm0 15.3v23.4c0 1.1.9 2 2 2h15c4.8 0 8.5-1.2 11.2-3.6 2.77-2.53 4.27-6.15 4.1-9.9 0-9.1-4.7-13.8-14-14h-16.3c-1.11.08-1.97.99-2 2.1z" fill="#fafafa"/></svg>

<?xml version="1.0" encoding="utf-8"?>
<!-- Generator: Adobe Illustrator 25.2.3, SVG Export Plug-In . SVG Version: 6.00 Build 0)  -->
<svg version="1.1" id="Layer_2" xmlns="http://www.w3.org/2000/svg" xmlns:xlink="http://www.w3.org/1999/xlink" x="0px" y="0px"
	 viewBox="0 0 128 128" style="enable-background:new 0 0 128 128;" xml:space="preserve">
<g>
	<path style="fill:#CC3333;" d="M116,4H12c-4.42,0-8,3.58-8,8v104c0,4.42,3.58,8,8,8h104c4.42,0,8-3.58,8-8V12
		C124,7.58,120.42,4,116,4z"/>
	<path style="fill:#F44336;" d="M109.7,4H11.5C7.37,4.03,4.03,7.37,4,11.5v97.9c-0.01,4.14,3.34,7.49,7.48,7.5c0.01,0,0.01,0,0.02,0
		h98.1c4.14,0.01,7.49-3.34,7.5-7.48c0-0.01,0-0.01,0-0.02V11.5c0.09-4.05-3.13-7.41-7.18-7.5C109.85,4,109.77,4,109.7,4z"/>
	<path style="fill:#FF8A80;" d="M39.7,12.9c0-2.3-1.6-3-10.8-2.7c-7.7,0.3-11.5,1.2-13.8,4s-2.9,8.5-3,15.3c0,4.8,0,9.3,2.5,9.3
		c3.4,0,3.4-7.9,6.2-12.3C26.2,17.8,39.7,15.9,39.7,12.9z"/>
	<path style="fill:#FAFAFA;" d="M33.2,106V22c0-1.1,0.9-2,2-2h28.2c9.9,0,17.5,2,22.7,6s7.8,9.9,7.8,17.8
		c0.08,6.69-3.38,12.92-9.1,16.4c-0.94,0.59-1.22,1.82-0.63,2.76c0.2,0.32,0.49,0.58,0.83,0.74c2.77,1.33,5.18,3.32,7,5.8
		c2.74,3.69,4.15,8.2,4,12.8c0,8.3-2.7,14.6-7.9,19S75.2,108,65.3,108H35.2C34.1,108,33.2,107.1,33.2,106z M48.5,55c0,1.1,0.9,2,2,2
		h13c4.8,0,8.5-1.1,11.2-3.2s4-5.2,4-9.2c0-4.3-1.2-7.5-3.7-9.4s-6.3-2.9-11.6-2.9H50.5c-1.1,0-2,0.9-2,2V55z M48.5,70.3v23.4
		c0,1.1,0.9,2,2,2h15c4.8,0,8.5-1.2,11.2-3.6c2.77-2.53,4.27-6.15,4.1-9.9c0-9.1-4.7-13.8-14-14H50.5
		C49.39,68.28,48.53,69.19,48.5,70.3z"/>
</g>
</svg>
